source/images/icons/icon-editorial/drapeau.svg

<?xml version="1.0" encoding="UTF-8"?>
<svg width="80px" height="80px" viewBox="0 0 80 80" version="1.1" xmlns="http://www.w3.org/2000/svg" xmlns:xlink="http://www.w3.org/1999/xlink">
    <!-- Generator: Sketch 55.2 (78181) - https://sketchapp.com -->
    <title>Illustrative Icons/Drapeau</title>
    <desc>Created with Sketch.</desc>
    <g id="Illustrative-Icons/Drapeau" stroke="none" stroke-width="1" fill="none" fill-rule="evenodd">
        <path d="M40.0000544,75.0000112 C39.324181,75.0000112 38.7152196,74.5918514 38.4583877,73.9666777 L15.1250543,17.300011 C14.8702039,16.6796162 15.0120616,15.9669018 15.4850429,15.4913736 C15.9580243,15.0158454 16.6699666,14.8701625 17.291721,15.1216776 C17.4183877,15.1733443 30.1600544,20.2416776 39.4133877,16.7716776 C45.2850544,14.570011 51.4883877,14.800011 57.3483877,17.4383443 C61.7433877,19.4166776 64.3983877,22.0433443 64.5150544,22.155011 C65.0207464,22.6525773 65.1560406,23.4157278 64.8522124,24.056809 C64.5483843,24.6978902 63.872033,25.0763767 63.1667211,25.000011 C55.1267211,24.1966776 49.4867211,28.9883443 44.0300544,33.6216776 C41.8500544,35.4733443 39.791721,37.2216777 37.571721,38.660011 C36.8000274,39.1473624 35.7798886,38.9233769 35.2833439,38.1575662 C34.7867992,37.3917556 34.9985696,36.3690113 35.7583877,35.8633443 C37.7983877,34.5416776 39.776721,32.8633443 41.871721,31.0816776 C46.5050544,27.1466776 51.6417211,22.7833443 58.4650544,21.7866776 C57.6293692,21.2849828 56.7638748,20.8347031 55.8733877,20.4383443 C50.7950544,18.1666776 45.6500544,18.000011 40.5850544,19.8933443 C36.1500544,21.560011 30.6600544,21.775011 24.2700544,20.5416776 C22.491721,20.1983443 20.8983877,19.7883443 19.6033877,19.4083443 L41.541721,72.6983444 C41.753643,73.2126166 41.6950461,73.7987136 41.3855045,74.2608508 C41.0759629,74.722988 40.5562798,75.0000112 40.0000544,75.0000112 Z M31.666721,41.6666777 C32.5871956,41.6666777 33.3333877,40.9204856 33.3333877,40.000011 C33.3333877,39.0795364 32.5871956,38.3333443 31.666721,38.3333443 C30.7462465,38.3333443 30.0000544,39.0795364 30.0000544,40.000011 C30.0000544,40.9204856 30.7462465,41.6666777 31.666721,41.6666777 Z" id="Shape-color" fill="#ADB5BD"></path>
    </g>
</svg>

<svg width="80" height="80">
    <title>
        Illustrative Icons/Drapeau
    </title>
    <path d="M40 75a1.667 1.667 0 0 1-1.542-1.033L15.125 17.3a1.667 1.667 0 0 1 2.167-2.178c.126.051 12.868 5.12 22.121 1.65 5.872-2.202 12.075-1.972 17.935.666 4.395 1.979 7.05 4.605 7.167 4.717A1.667 1.667 0 0 1 63.167 25c-8.04-.803-13.68 3.988-19.137 8.622-2.18 1.851-4.238 3.6-6.458 5.038a1.667 1.667 0 0 1-1.814-2.797c2.04-1.321 4.019-3 6.114-4.781 4.633-3.935 9.77-8.299 16.593-9.295a23.982 23.982 0 0 0-2.592-1.349C50.795 18.167 45.65 18 40.585 19.893c-4.435 1.667-9.925 1.882-16.315.649a51.115 51.115 0 0 1-4.667-1.134l21.939 53.29A1.667 1.667 0 0 1 40 75zm-8.333-33.333a1.667 1.667 0 1 0 0-3.334 1.667 1.667 0 0 0 0 3.334z" fill="#ADB5BD" fill-rule="evenodd"/>
</svg>
